build/img/comfort.svg

<svg width="55" height="55" viewBox="0 0 55 55" fill="none" xmlns="http://www.w3.org/2000/svg">
<path d="M27.4976 2.59875C24.6863 2.59875 21.878 3.02388 19.1645 3.8749L14.322 5.38931C9.29299 6.96657 6.17823 12.0114 7.01722 17.2147L8.42217 25.9453C6.2856 26.3643 4.43921 27.6099 3.24011 29.3362C2.64803 30.1886 2.44535 31.259 2.38234 32.3296C2.31931 33.4002 2.4167 34.4676 2.61409 35.3214L4.71748 44.4092C5.12893 46.1884 6.72319 47.4573 8.5493 47.4573H10.1989V51.574C10.1972 52.029 10.5646 52.3994 11.0196 52.4012H14.3155C14.5922 52.401 14.8503 52.2621 15.0027 52.031L18.0524 47.4573H36.9476L39.9973 52.031C40.1497 52.2617 40.4078 52.401 40.6845 52.4012H43.9804C44.4354 52.3994 44.8029 52.029 44.8011 51.574V47.4573H46.4507C48.2768 47.4573 49.8711 46.1884 50.2825 44.4092L52.3859 35.3214C52.5834 34.4676 52.6807 33.4002 52.6177 32.3296C52.5547 31.259 52.352 30.1838 51.7599 29.3314C50.5596 27.6034 48.7107 26.3599 46.5714 25.9437L47.9828 17.2147C48.8218 12.0114 45.707 6.96657 40.678 5.38931L35.8356 3.8749C33.1221 3.02388 30.3089 2.59875 27.4976 2.59875ZM27.4992 4.24349C30.1444 4.24349 32.7901 4.64333 35.3431 5.44403L40.1792 6.96483C44.4386 8.3007 47.0632 12.5454 46.3526 16.9524L44.9299 25.7924C40.4171 25.8258 36.7481 29.5118 36.7481 34.0322C36.7481 34.6213 36.8123 35.1962 36.9299 35.751C30.5136 34.5928 24.001 34.6435 18.075 35.7291C18.1895 35.1812 18.252 34.6139 18.252 34.0329C18.252 29.5125 14.583 25.8263 10.0702 25.7931L8.6475 16.953C7.93692 12.546 10.5615 8.30129 14.8209 6.96543L19.657 5.44462C22.21 4.6439 24.8541 4.24349 27.4992 4.24349ZM27.4976 5.85766C25.2566 5.85766 23.0173 6.19474 20.8543 6.8731L17.0289 8.07854C12.9707 9.35132 10.4521 13.423 11.1291 17.6218L11.7374 21.399C11.8106 21.8491 12.2354 22.1542 12.6853 22.0797C13.1339 22.0071 13.4391 21.5853 13.3677 21.1366L12.7593 17.3596C12.2107 13.957 14.2328 10.679 17.5213 9.6476L21.3467 8.44869C25.3519 7.19258 29.6465 7.19258 33.6517 8.44869L37.4787 9.6476C40.7672 10.679 42.7893 13.957 42.2407 17.3596L41.6324 21.1366C41.5609 21.5853 41.8662 22.0073 42.3147 22.0797C42.7646 22.1543 43.1895 21.8493 43.2626 21.399L43.871 17.6218C44.548 13.423 42.0293 9.35132 37.9711 8.07854L34.1458 6.8731C31.9827 6.19474 29.7386 5.85766 27.4976 5.85766ZM18.0927 12.5058C17.8739 12.5063 17.6643 12.5935 17.5101 12.7487C17.1905 13.0701 17.1905 13.5893 17.5101 13.9106L18.0959 14.4948L17.5101 15.079C17.1905 15.4004 17.1905 15.9196 17.5101 16.2409C17.832 16.5637 18.3549 16.5637 18.6768 16.2409L19.261 15.6568L19.8452 16.2409C20.1666 16.5605 20.6858 16.5605 21.0072 16.2409C21.3267 15.9196 21.3267 15.4004 21.0072 15.079L20.423 14.4948L21.0072 13.9106C21.3267 13.5893 21.3267 13.0701 21.0072 12.7487C20.8525 12.5933 20.6423 12.5058 20.423 12.5058C20.2059 12.5074 19.9983 12.595 19.8452 12.7487L19.261 13.3329L18.6768 12.7487C18.5222 12.5933 18.312 12.5058 18.0927 12.5058ZM34.5771 12.5058C34.3577 12.5058 34.1475 12.5933 33.9929 12.7487C33.6733 13.0701 33.6733 13.5893 33.9929 13.9106L34.5771 14.4948L33.9929 15.079C33.6733 15.4004 33.6733 15.9196 33.9929 16.2409C34.3143 16.5605 34.8334 16.5605 35.1548 16.2409L35.739 15.6568L36.3232 16.2409C36.6451 16.5637 37.168 16.5637 37.49 16.2409C37.8095 15.9196 37.8095 15.4004 37.49 15.079L36.9042 14.4948L37.49 13.9106C37.8084 13.5894 37.8084 13.0715 37.49 12.7503C37.168 12.4275 36.6451 12.4275 36.3232 12.7503L35.7406 13.3329L35.1548 12.7487C35.0017 12.5947 34.7941 12.5073 34.5771 12.5058ZM26.3357 17.4513C26.1163 17.4513 25.9061 17.5388 25.7515 17.6942C25.4319 18.0156 25.4319 18.5347 25.7515 18.8561L26.3357 19.4403L25.7515 20.0245C25.4319 20.3459 25.4319 20.865 25.7515 21.1864C26.0736 21.5103 26.5977 21.5103 26.9198 21.1864L27.5008 20.6055L28.0802 21.1864C28.4023 21.5103 28.9264 21.5103 29.2486 21.1864C29.5681 20.865 29.5681 20.3459 29.2486 20.0245L28.6644 19.4403L29.2486 18.8561C29.5681 18.5347 29.5681 18.0156 29.2486 17.6942C29.0939 17.5388 28.8837 17.4513 28.6644 17.4513C28.445 17.4513 28.2348 17.5388 28.0802 17.6942L27.5008 18.2752L26.9198 17.6942C26.7652 17.5388 26.555 17.4513 26.3357 17.4513ZM19.7422 24.0447C19.5236 24.0435 19.3135 24.129 19.158 24.283C18.8353 24.6049 18.8353 25.1278 19.158 25.4497L19.7406 26.0307L19.158 26.6117C18.8342 26.9338 18.8342 27.4579 19.158 27.78C19.4802 28.1039 20.0043 28.1039 20.3264 27.78L20.909 27.1975L21.4932 27.78C21.8146 28.0996 22.3337 28.0996 22.6551 27.78C22.979 27.4579 22.979 26.9338 22.6551 26.6117L22.0741 26.0307L22.6551 25.4497C22.9779 25.1278 22.9779 24.6049 22.6551 24.283C22.4997 24.129 22.2895 24.0435 22.0709 24.0447C21.8545 24.0452 21.647 24.1307 21.4932 24.283L20.909 24.8655L20.3264 24.283C20.171 24.129 19.9608 24.0435 19.7422 24.0447ZM32.9291 24.0447C32.7105 24.0435 32.5003 24.129 32.3449 24.283C32.0221 24.6049 32.0221 25.1278 32.3449 25.4497L32.9259 26.0307L32.3449 26.6117C32.0211 26.9338 32.0211 27.4579 32.3449 27.78C32.6663 28.0996 33.1854 28.0996 33.5068 27.78L34.091 27.1975L34.6736 27.78C34.9958 28.1039 35.5199 28.1039 35.842 27.78C36.1658 27.4579 36.1658 26.9338 35.842 26.6117L35.2594 26.0307L35.842 25.4497C36.1648 25.1278 36.1648 24.6049 35.842 24.283C35.6866 24.129 35.4764 24.0435 35.2578 24.0447C35.0392 24.0435 34.829 24.129 34.6736 24.283L34.091 24.8655L33.5068 24.283C33.353 24.1307 33.1455 24.0455 32.9291 24.0447ZM10.009 27.4388C13.6593 27.4388 16.6024 30.3819 16.6024 34.0322C16.6024 34.7588 16.4826 35.4501 16.2661 36.1002C15.7242 36.2213 15.1815 36.3506 14.639 36.4897C14.8343 35.1858 14.7642 33.787 14.3526 32.5356C13.7883 30.8202 12.3735 29.3323 10.2536 29.3249C8.72161 29.3249 7.34395 30.0363 6.44591 31.1435C5.945 31.7611 5.78519 32.5163 5.72171 33.2533C5.65826 33.9902 5.71289 34.7187 5.83115 35.3101L7.27794 42.5472C7.36771 42.9919 7.80006 43.2804 8.24514 43.1926C8.69245 43.1056 8.98446 42.6726 8.89692 42.2254L7.44853 34.9866C7.36515 34.5696 7.31536 33.949 7.36323 33.3933C7.4111 32.8376 7.5809 32.3572 7.72211 32.1831C8.31834 31.448 9.22346 30.9748 10.2472 30.9729C11.6645 30.9802 12.3594 31.7647 12.7835 33.0538C13.1638 34.21 13.1609 35.7347 12.8575 36.979C12.4356 37.1025 12.0131 37.2305 11.5909 37.3652C11.1597 37.5055 10.9231 37.9681 11.0614 38.4C11.1999 38.8331 11.663 39.0722 12.0962 38.9342C12.6456 38.7593 13.1943 38.5945 13.7426 38.4386C13.7545 38.4361 13.7663 38.4313 13.778 38.4288C14.8702 38.119 15.9601 37.8471 17.0482 37.6129C17.0698 37.6104 17.0913 37.6056 17.1125 37.6008C25.8173 35.7386 34.3937 36.2752 42.9102 38.9349C43.3448 39.0713 43.8076 38.8289 43.9433 38.3941C44.0766 37.961 43.835 37.5015 43.4026 37.3658C42.984 37.235 42.565 37.1098 42.1457 36.9892C41.8399 35.7431 41.8352 34.2136 42.2165 33.0543C42.64 31.7671 43.3332 30.9807 44.7464 30.9735C45.7726 30.9735 46.6805 31.4472 47.2779 32.1837C47.4191 32.3579 47.5889 32.8382 47.6368 33.3939C47.6846 33.9496 47.6349 34.5702 47.5515 34.9872L46.1031 42.2259C46.0152 42.671 46.3037 43.1034 46.7484 43.1932C47.1957 43.285 47.6324 42.9956 47.722 42.5478L49.1688 35.3107C49.2871 34.7193 49.3417 33.9908 49.2783 33.2539C49.2148 32.517 49.055 31.7616 48.5541 31.144C47.656 30.0368 46.2784 29.3255 44.7464 29.3255C42.6264 29.3328 41.2117 30.8208 40.6474 32.5362C40.2339 33.7933 40.1656 35.199 40.3642 36.508C39.8233 36.3711 39.2822 36.242 38.7403 36.1217C38.5194 35.4656 38.3976 34.7671 38.3976 34.0329C38.3976 30.3826 41.3407 27.4394 44.991 27.4394C47.241 27.4394 49.2123 28.559 50.4032 30.2734C50.698 30.6979 50.9233 31.5303 50.9761 32.4267C51.0289 33.3232 50.9364 34.2815 50.7814 34.9517L48.6764 44.0381C48.4357 45.0787 47.5187 45.8083 46.4507 45.8083H8.54928C7.4812 45.8083 6.56422 45.0787 6.32357 44.0381L4.21856 34.9517C4.06357 34.2815 3.97108 33.3232 4.02384 32.4267C4.07657 31.5303 4.30195 30.6979 4.59676 30.2734C5.78767 28.559 7.75895 27.4388 10.009 27.4388ZM11.8468 47.4573H16.0681L13.8714 50.7532H11.8468V47.4573ZM38.9255 47.4573H43.1532V50.7532H41.1222L38.9255 47.4573Z" fill="white"/>
</svg>

<svg width="55" height="55" fill="none" xmlns="http://www.w3.org/2000/svg"><path d="M27.498 2.599c-2.812 0-5.62.425-8.334 1.276l-4.842 1.514a10.63 10.63 0 00-7.305 11.826l1.405 8.73a8.255 8.255 0 00-5.182 3.391c-.592.853-.795 1.923-.858 2.994-.063 1.07.035 2.138.232 2.991l2.103 9.088a3.942 3.942 0 003.832 3.048h1.65v4.117a.824.824 0 00.82.827h3.296a.825.825 0 00.688-.37l3.05-4.574h18.895l3.05 4.574c.152.23.41.37.687.37h3.295a.824.824 0 00.821-.827v-4.117h1.65a3.942 3.942 0 003.831-3.048l2.104-9.088c.197-.853.295-1.92.232-2.991-.063-1.071-.266-2.146-.858-2.999a8.243 8.243 0 00-5.189-3.387l1.412-8.73A10.63 10.63 0 0040.678 5.39l-4.842-1.514A27.866 27.866 0 0027.498 2.6zm.001 1.644c2.645 0 5.291.4 7.844 1.201l4.836 1.52a8.961 8.961 0 016.174 9.988l-1.423 8.84c-4.513.034-8.182 3.72-8.182 8.24 0 .59.064 1.164.182 1.719-6.416-1.158-12.929-1.107-18.855-.022a8.285 8.285 0 00.177-1.696c0-4.52-3.669-8.207-8.182-8.24l-1.422-8.84a8.961 8.961 0 016.173-9.988l4.836-1.52a26.2 26.2 0 017.842-1.202zm-.001 1.615c-2.241 0-4.48.337-6.644 1.015L17.03 8.08a8.582 8.582 0 00-5.9 9.543l.608 3.777c.074.45.498.755.948.68a.824.824 0 00.683-.942l-.609-3.777a6.917 6.917 0 014.762-7.712l3.826-1.2a20.561 20.561 0 0112.305 0l3.827 1.2a6.917 6.917 0 014.762 7.712l-.609 3.777a.824.824 0 00.683.943c.45.074.875-.23.948-.681l.608-3.777a8.582 8.582 0 00-5.9-9.543l-3.825-1.206a22.223 22.223 0 00-6.648-1.015zm-9.405 6.648a.824.824 0 00-.583 1.405l.586.584-.586.584a.824.824 0 001.167 1.162l.584-.584.584.584c.322.32.84.32 1.162 0a.824.824 0 000-1.162l-.584-.584.584-.584a.824.824 0 00-.584-1.405.825.825 0 00-.578.243l-.584.584-.584-.584a.824.824 0 00-.584-.243zm16.484 0a.824.824 0 00-.584 1.405l.584.584-.584.584a.824.824 0 000 1.162c.321.32.84.32 1.162 0l.584-.584.584.584a.824.824 0 001.167-1.162l-.586-.584.586-.584a.824.824 0 00-1.167-1.16l-.582.582-.586-.584a.823.823 0 00-.578-.243zm-8.241 4.945a.824.824 0 00-.584 1.405l.584.584-.584.584a.824.824 0 001.168 1.162l.58-.58.58.58a.824.824 0 001.169-1.162l-.585-.584.585-.584a.824.824 0 00-1.169-1.162l-.58.581-.58-.58a.824.824 0 00-.584-.244zm-6.594 6.594a.824.824 0 00-.584 1.405l.583.58-.583.582a.824.824 0 000 1.168.824.824 0 001.168 0l.583-.582.584.582a.824.824 0 001.162-1.168l-.58-.581.58-.581a.824.824 0 00-1.162-1.167l-.584.582-.583-.582a.823.823 0 00-.584-.238zm13.187 0a.823.823 0 00-.584 1.405l.58.58-.58.582a.824.824 0 001.162 1.168l.584-.582.583.582a.824.824 0 001.168 0 .824.824 0 000-1.168l-.583-.581.583-.581a.824.824 0 00-.584-1.405.823.823 0 00-.584.238l-.583.582-.584-.582a.825.825 0 00-.578-.238zm-22.92 3.394a6.582 6.582 0 016.257 8.661c-.542.121-1.084.25-1.627.39.195-1.304.125-2.703-.286-3.954-.565-1.716-1.98-3.204-4.1-3.211a4.9 4.9 0 00-3.807 1.819c-.501.617-.66 1.372-.724 2.11a7.492 7.492 0 00.11 2.056l1.446 7.237a.824.824 0 001.619-.322l-1.448-7.238a6.131 6.131 0 01-.086-1.594c.048-.555.218-1.036.36-1.21a3.247 3.247 0 012.524-1.21c1.418.007 2.112.792 2.537 2.08.38 1.157.377 2.682.073 3.926a57.08 57.08 0 00-1.266.386.824.824 0 00.505 1.57c.55-.176 1.098-.34 1.647-.496.011-.003.023-.008.035-.01a52.344 52.344 0 013.335-.828c8.704-1.862 17.28-1.326 25.797 1.334a.824.824 0 001.033-.54.824.824 0 00-.54-1.03 66.55 66.55 0 00-1.257-.376c-.306-1.246-.31-2.775.07-3.935.424-1.287 1.117-2.073 2.53-2.08 1.027 0 1.934.473 2.532 1.21.141.174.31.654.359 1.21a6.133 6.133 0 01-.086 1.593l-1.448 7.239c-.088.445.2.877.645.967a.824.824 0 00.974-.645l1.447-7.237c.118-.592.173-1.32.11-2.057-.064-.737-.224-1.492-.725-2.11a4.902 4.902 0 00-3.808-1.818c-2.12.007-3.534 1.495-4.099 3.21-.413 1.257-.481 2.663-.283 3.972a56.701 56.701 0 00-1.624-.386 6.582 6.582 0 016.25-8.682 6.565 6.565 0 015.413 2.833c.295.425.52 1.257.573 2.154a9.525 9.525 0 01-.195 2.525l-2.105 9.086a2.277 2.277 0 01-2.225 1.77H8.549a2.277 2.277 0 01-2.225-1.77l-2.105-9.086a9.527 9.527 0 01-.195-2.525c.053-.897.278-1.73.573-2.154a6.565 6.565 0 015.412-2.834zm1.838 20.018h4.221l-2.197 3.296h-2.024v-3.296zm27.078 0h4.228v3.296h-2.03l-2.197-3.296z" fill="#fff"/></svg>
